config/includes.chroot/usr/share/icons/Tela-circle/scalable/mimetypes/text-x-cpp.svg

<svg width="64" height="64" version="1.1" viewBox="0 0 16.933 16.933" xmlns="http://www.w3.org/2000/svg">
 <defs>
  <linearGradient id="a" x1="49.571" x2="51.714" y1="52.714" y2="54.857" gradientTransform="matrix(2.3333,0,0,2.3333,-68.667,-72.001)" gradientUnits="userSpaceOnUse">
   <stop offset="0"/>
   <stop stop-opacity="0" offset="1"/>
  </linearGradient>
 </defs>
 <g transform="scale(.26458)">
  <rect x="8" y="4" width="48" height="56" ry="5" fill="#f4f4f4" style="paint-order:stroke fill markers"/>
  <path d="m56 46-14 14h9c2.77 0 5-2.23 5-5z" fill="url(#a)" fill-rule="evenodd" opacity=".1" stroke-width="8.8191" style="paint-order:stroke fill markers"/>
 </g>
 <path d="m5.2916 6.6145h1.0583v0.52916h-1.0583s-0.52916 0-0.52916 0.52916v1.5875c0 0.52916 0.52916 0.52916 0.52916 0.52916h1.0583v0.52916h-1.0583s-1.0583 0-1.0583-1.0583v-1.5875c0-1.0583 1.0583-1.0583 1.0583-1.0583zm2.6458 0.52916h0.52916v1.0583h1.0583v0.52916h-1.0583v1.0583h-0.52916v-1.0583h-1.0583v-0.52916h1.0583zm3.1749 0h0.52916v1.0583h1.0583v0.52916h-1.0583v1.0583h-0.52916v-1.0583h-1.0583v-0.52916h1.0583z" color="#000000" fill="#2b898f" style="text-decoration-line:none;text-indent:0;text-transform:none"/>
</svg>

<svg width="64" height="64" viewBox="0 0 16.933 16.933" xmlns="http://www.w3.org/2000/svg"><defs><linearGradient id="a" x1="49.571" x2="51.714" y1="52.714" y2="54.857" gradientTransform="translate(-68.667 -72.001) scale(2.3333)" gradientUnits="userSpaceOnUse"><stop offset="0"/><stop stop-opacity="0" offset="1"/></linearGradient></defs><g transform="scale(.26458)"><rect x="8" y="4" width="48" height="56" ry="5" fill="#f4f4f4" style="paint-order:stroke fill markers"/><path d="M56 46 42 60h9c2.77 0 5-2.23 5-5z" fill="url(#a)" fill-rule="evenodd" opacity=".1" style="paint-order:stroke fill markers"/></g><path d="M5.292 6.614H6.35v.53H5.292s-.53 0-.53.529V9.26c0 .53.53.53.53.53H6.35v.529H5.292s-1.059 0-1.059-1.059V7.673c0-1.058 1.059-1.058 1.059-1.058zm2.645.53h.53v1.058h1.058v.53H8.467v1.057h-.53V8.731H6.88v-.529h1.058zm3.175 0h.53v1.058H12.7v.53H11.64v1.057h-.529V8.731h-1.058v-.529h1.058z" color="#000" fill="#2b898f" style="text-decoration-line:none;text-indent:0;text-transform:none"/></svg>
